X: 30683
T: VIRGINIA REEL
C:
%R: reel
B: Elias Howe "The Musician's Companion" Part 3 1844 p.68 #3
S: http://imslp.org/wiki/The_Musician's_Companion_(Howe,_Elias)
Z: 2015 John Chambers <jc:trillian.mit.edu>
M: 2/4
L: 1/16
K: F
% - - - - - - - - - - - - - - - - - - - - - - - - -
c2 |\
f2af cfgf | gbag fddc |\
fgaf gbag | fdcA F2 ::\
fd |\
cABc defd | cABc dGGd |\
cABc defd | cfcA F2 :|
% - - - - - - - - - - - - - - - - - - - - - - - - -
